svg/furkot/icomoon/code.svg

<svg width="512" height="512" viewBox="0 0 512 512" data-tags="code, embed" style="margin-left:8px;margin-top:8px"><path d="M 64.00,256.00L 192.00,128.00L 128.00,128.00L0.00,256.00L 128.00,384.00L 192.00,384.00 zM 384.00,128.00L 320.00,128.00L 448.00,256.00L 320.00,384.00L 384.00,384.00L 512.00,256.00 zM 272.00,64.00L 192.00,448.00L 240.00,448.00L 320.00,64.00 z"/></svg>

<svg height="512" viewBox="0 0 512 512" width="512"><path d="m64 256 128-128h-64l-128 128 128 128h64zm320-128h-64l128 128-128 128h64l128-128zm-112-64-80 384h48l80-384z"/></svg>
